austria/municipalities/41739.svg

<?xml version="1.0" encoding="UTF-8"?>
<!DOCTYPE svg PUBLIC "-//W3C//DTD SVG 1.1//EN" "http://www.w3.org/Graphics/SVG/1.1/DTD/svg11.dtd">
<svg xmlns="http://www.w3.org/2000/svg" version="1.1" width="166px" height="207px" style="shape-rendering:geometricPrecision; text-rendering:geometricPrecision; image-rendering:optimizeQuality; fill-rule:evenodd; clip-rule:evenodd" xmlns:xlink="http://www.w3.org/1999/xlink">
<g><path style="opacity:1" fill="#000000" d="M -0.5,-0.5 C 54.8333,-0.5 110.167,-0.5 165.5,-0.5C 165.5,43.8333 165.5,88.1667 165.5,132.5C 157.932,172.068 134.599,196.735 95.5,206.5C 86.8333,206.5 78.1667,206.5 69.5,206.5C 30.0061,196.67 6.67281,171.67 -0.5,131.5C -0.5,87.5 -0.5,43.5 -0.5,-0.5 Z"/></g>
<g><path style="opacity:1" fill="#00612a" d="M 3.5,3.5 C 56.1667,3.5 108.833,3.5 161.5,3.5C 161.5,45.5 161.5,87.5 161.5,129.5C 156.484,127.913 151.317,126.913 146,126.5C 135.584,128.525 125.251,130.525 115,132.5C 112.5,132.333 110,132.167 107.5,132C 103.43,130.531 99.4302,128.865 95.5,127C 87.3692,124.772 79.3692,125.105 71.5,128C 65.9286,132.451 59.5952,135.284 52.5,136.5C 43.4185,134.127 34.4185,131.46 25.5,128.5C 17.9775,129.898 10.6441,131.898 3.5,134.5C 3.5,90.8333 3.5,47.1667 3.5,3.5 Z"/></g>
<g><path style="opacity:1" fill="#000000" d="M 63.5,17.5 C 77.1667,17.5 90.8333,17.5 104.5,17.5C 102.649,26.7861 100.982,36.1195 99.5,45.5C 99.8333,46.5 100.167,47.5 100.5,48.5C 110.26,46.8474 119.927,45.0141 129.5,43C 130.158,49.7563 130.491,56.5897 130.5,63.5C 130.491,70.4103 130.158,77.2437 129.5,84C 119.927,82.0272 110.26,80.1939 100.5,78.5C 100.167,79.5 99.8333,80.5 99.5,81.5C 100.982,90.8805 102.649,100.214 104.5,109.5C 90.8171,109.833 77.1504,109.499 63.5,108.5C 66.3132,98.6594 68.3132,88.6594 69.5,78.5C 59.0154,79.7593 48.6821,81.7593 38.5,84.5C 38.5,70.5 38.5,56.5 38.5,42.5C 48.6794,45.2692 59.0127,47.2692 69.5,48.5C 68.232,38.0193 66.232,27.686 63.5,17.5 Z"/></g>
<g><path style="opacity:1" fill="#fea700" d="M 66.5,19.5 C 78.5046,19.3335 90.5046,19.5001 102.5,20C 100.315,29.9656 98.3146,39.9656 96.5,50C 107.023,49.9546 117.357,48.4546 127.5,45.5C 127.832,57.5185 127.499,69.5185 126.5,81.5C 116.602,79.11 106.602,77.61 96.5,77C 98.1293,87.0705 100.129,97.0705 102.5,107C 90.4861,107.833 78.4861,107.666 66.5,106.5C 68.7247,96.5938 70.3914,86.5938 71.5,76.5C 61.0627,77.5959 50.7294,79.2626 40.5,81.5C 40.5,69.5 40.5,57.5 40.5,45.5C 50.6942,47.9643 61.0276,49.631 71.5,50.5C 70.299,40.0935 68.6324,29.7601 66.5,19.5 Z"/></g>
<g><path style="opacity:1" fill="#fefffe" d="M 78.5,127.5 C 88.303,126.367 97.303,128.534 105.5,134C 108.468,134.694 111.468,135.194 114.5,135.5C 124.916,132.863 135.416,130.53 146,128.5C 151,128.958 155.833,130.125 160.5,132C 161.973,134.608 161.473,136.775 159,138.5C 154.796,137.014 150.463,136.014 146,135.5C 135.378,137.616 124.878,139.949 114.5,142.5C 108.446,141.982 102.779,140.149 97.5,137C 89.1515,133.73 80.8181,133.73 72.5,137C 66.5414,141.487 59.8747,144.32 52.5,145.5C 44.9036,144.246 37.5703,142.079 30.5,139C 21.9076,137.441 13.9076,138.941 6.5,143.5C 5.76957,141.659 5.10291,139.825 4.5,138C 10.8369,134.667 17.5036,132.167 24.5,130.5C 33.4289,133.468 42.4289,136.134 51.5,138.5C 55.3265,138.392 58.9932,137.558 62.5,136C 67.7679,132.868 73.1013,130.035 78.5,127.5 Z"/></g>
<g><path style="opacity:1" fill="#fefffe" d="M -0.5,131.5 C 6.67281,171.67 30.0061,196.67 69.5,206.5C 46.1667,206.5 22.8333,206.5 -0.5,206.5C -0.5,181.5 -0.5,156.5 -0.5,131.5 Z"/></g>
<g><path style="opacity:1" fill="#fefffe" d="M 165.5,132.5 C 165.5,157.167 165.5,181.833 165.5,206.5C 142.167,206.5 118.833,206.5 95.5,206.5C 134.599,196.735 157.932,172.068 165.5,132.5 Z"/></g>
<g><path style="opacity:1" fill="#00612a" d="M 79.5,136.5 C 84.248,136.275 88.9147,136.775 93.5,138C 98.3873,140.277 103.387,142.277 108.5,144C 113.167,144.667 117.833,144.667 122.5,144C 133.683,138.488 145.349,137.155 157.5,140C 158.516,140.519 159.182,141.353 159.5,142.5C 158.698,145.574 157.698,148.574 156.5,151.5C 153.017,150.793 149.517,150.127 146,149.5C 135.676,151.457 125.509,153.791 115.5,156.5C 107.049,155.441 99.0491,152.941 91.5,149C 79.9085,147.813 69.5751,150.813 60.5,158C 57.8929,158.818 55.2263,159.318 52.5,159.5C 44.9036,158.246 37.5703,156.079 30.5,153C 23.5586,151.879 16.8919,152.712 10.5,155.5C 8.74329,152.49 7.40996,149.323 6.5,146C 13.9165,141.479 21.9165,139.812 30.5,141C 35.8333,143 41.1667,145 46.5,147C 53.1519,148.035 59.4853,147.035 65.5,144C 70.1261,141.155 74.7927,138.655 79.5,136.5 Z"/></g>
<g><path style="opacity:1" fill="#fefffe" d="M 79.5,150.5 C 89.8553,150.454 99.5219,152.954 108.5,158C 110.5,158.167 112.5,158.333 114.5,158.5C 122.43,157.767 130.097,155.934 137.5,153C 143.167,152.333 148.833,152.333 154.5,153C 154.957,153.414 155.291,153.914 155.5,154.5C 154.05,155.85 153.383,157.516 153.5,159.5C 142.645,158.036 132.312,159.87 122.5,165C 114.266,166.612 106.6,165.279 99.5,161C 90.9625,156.848 82.2958,156.515 73.5,160C 68.147,162.701 62.8137,165.368 57.5,168C 53.8333,168.667 50.1667,168.667 46.5,168C 40.9781,166.383 35.6448,164.383 30.5,162C 25.1623,161.121 19.9957,161.621 15,163.5C 9.90182,157.853 11.4018,155.02 19.5,155C 27.7612,153.966 35.4279,155.633 42.5,160C 48.5103,161.928 54.5103,161.928 60.5,160C 66.6949,156.338 73.0282,153.172 79.5,150.5 Z"/></g>
<g><path style="opacity:1" fill="#00612a" d="M 82.5,159.5 C 91.1766,160.014 99.1766,162.514 106.5,167C 115.957,168.516 124.957,167.183 133.5,163C 138.024,162.295 142.524,161.462 147,160.5C 148.812,160.493 150.312,161.16 151.5,162.5C 149.975,166.365 147.642,169.698 144.5,172.5C 136.989,174.045 129.656,176.211 122.5,179C 117.5,179.667 112.5,179.667 107.5,179C 100.413,174.805 92.7466,172.305 84.5,171.5C 75.7226,172.723 67.7226,175.889 60.5,181C 54.5147,182.942 48.5147,182.942 42.5,181C 36.3474,177.395 29.6807,175.395 22.5,175C 20.4514,172.407 18.2848,169.907 16,167.5C 15.3123,166.668 15.479,166.002 16.5,165.5C 19.011,164.219 21.6776,163.552 24.5,163.5C 31.9776,165.159 39.311,167.326 46.5,170C 55.9846,171.727 64.3179,169.393 71.5,163C 75.1613,161.407 78.828,160.241 82.5,159.5 Z"/></g>
<g><path style="opacity:1" fill="#fefffe" d="M 82.5,173.5 C 91.1464,174.105 99.1464,176.605 106.5,181C 111.833,181.667 117.167,181.667 122.5,181C 128.708,178.532 135.042,176.866 141.5,176C 132.68,186.716 121.347,190.716 107.5,188C 102.874,186.023 98.207,184.023 93.5,182C 88.1667,181.333 82.8333,181.333 77.5,182C 70.8358,184.225 64.5025,187.225 58.5,191C 44.9792,192.94 33.9792,188.606 25.5,178C 34.368,180.45 43.368,182.617 52.5,184.5C 55.5917,184.493 58.5917,183.993 61.5,183C 68.11,178.69 75.11,175.523 82.5,173.5 Z"/></g>
<g><path style="opacity:1" fill="#00612a" d="M 77.5,183.5 C 82.5111,183.334 87.5111,183.501 92.5,184C 97.1667,186 101.833,188 106.5,190C 112.885,190.535 119.219,190.535 125.5,190C 108.17,201.267 89.1695,205.267 68.5,202C 61.4455,200.649 54.7788,198.316 48.5,195C 52.2498,194.74 55.9164,194.073 59.5,193C 65.7196,190.059 71.7196,186.892 77.5,183.5 Z"/></g>
</svg>

<svg xmlns="http://www.w3.org/2000/svg" width="166" height="207" style="shape-rendering:geometricPrecision;text-rendering:geometricPrecision;image-rendering:optimizeQuality;fill-rule:evenodd;clip-rule:evenodd"><path style="opacity:1" d="M-.5-.5h166v133c-7.568 39.568-30.901 64.235-70 74h-26c-39.494-9.83-62.827-34.83-70-75V-.5z"/><path style="opacity:1" fill="#00612a" d="M3.5 3.5h158v126a68.9 68.9 0 0 0-15.5-3 18738.133 18738.133 0 0 1-31 6l-7.5-.5a134.427 134.427 0 0 1-12-5c-8.13-2.228-16.13-1.895-24 1-5.571 4.451-11.905 7.284-19 8.5a434.073 434.073 0 0 1-27-8 137.678 137.678 0 0 0-22 6V3.5z"/><path style="opacity:1" d="M63.5 17.5h41a710.003 710.003 0 0 0-5 28l1 3a744.7 744.7 0 0 0 29-5.5c.658 6.756.991 13.59 1 20.5a214.256 214.256 0 0 1-1 20.5 940.334 940.334 0 0 0-29-5.5l-1 3a709.97 709.97 0 0 0 5 28 421.046 421.046 0 0 1-41-1 188.564 188.564 0 0 0 6-30 220.097 220.097 0 0 0-31 6v-42a212.123 212.123 0 0 0 31 6 222.826 222.826 0 0 0-6-31z"/><path style="opacity:1" fill="#fea700" d="M66.5 19.5c12.005-.166 24.005 0 36 .5a828.316 828.316 0 0 0-6 30 112.045 112.045 0 0 0 31-4.5 324.943 324.943 0 0 1-1 36 171.65 171.65 0 0 0-30-4.5 413.414 413.414 0 0 0 6 30 216.504 216.504 0 0 1-36-.5 272.65 272.65 0 0 0 5-30 283.54 283.54 0 0 0-31 5v-36a203.279 203.279 0 0 0 31 5 348.773 348.773 0 0 0-5-31z"/><path style="opacity:1" fill="#fefffe" d="M78.5 127.5c9.803-1.133 18.803 1.034 27 6.5a70.64 70.64 0 0 0 9 1.5 551.928 551.928 0 0 1 31.5-7c5 .458 9.833 1.625 14.5 3.5 1.473 2.608.973 4.775-1.5 6.5a59.206 59.206 0 0 0-13-3 726.847 726.847 0 0 0-31.5 7c-6.054-.518-11.721-2.351-17-5.5-8.349-3.27-16.682-3.27-25 0-5.959 4.487-12.625 7.32-20 8.5a92.716 92.716 0 0 1-22-6.5c-8.592-1.559-16.592-.059-24 4.5a99.834 99.834 0 0 1-2-5.5 85.228 85.228 0 0 1 20-7.5 428.12 428.12 0 0 0 27 8 28.846 28.846 0 0 0 11-2.5 186 186 0 0 1 16-8.5z"/><path style="opacity:1" fill="#fefffe" d="M-.5 131.5c7.173 40.17 30.506 65.17 70 75h-70v-75zM165.5 132.5v74h-70c39.099-9.765 62.432-34.432 70-74z"/><path style="opacity:1" fill="#00612a" d="M79.5 136.5a45.565 45.565 0 0 1 14 1.5 145.549 145.549 0 0 0 15 6c4.667.667 9.333.667 14 0 11.183-5.512 22.849-6.845 35-4 1.016.519 1.682 1.353 2 2.5a71.088 71.088 0 0 1-3 9 448.324 448.324 0 0 0-10.5-2 406.437 406.437 0 0 0-30.5 7 70.355 70.355 0 0 1-24-7.5c-11.591-1.187-21.925 1.813-31 9a34.25 34.25 0 0 1-8 1.5 92.716 92.716 0 0 1-22-6.5c-6.941-1.121-13.608-.288-20 2.5a39.44 39.44 0 0 1-4-9.5c7.416-4.521 15.416-6.188 24-5l16 6c6.652 1.035 12.985.035 19-3a130.149 130.149 0 0 1 14-7.5z"/><path style="opacity:1" fill="#fefffe" d="M79.5 150.5c10.355-.046 20.022 2.454 29 7.5l6 .5a82.793 82.793 0 0 0 23-5.5 72.464 72.464 0 0 1 17 0c.457.414.791.914 1 1.5-1.45 1.35-2.117 3.016-2 5-10.855-1.464-21.188.37-31 5.5-8.234 1.612-15.9.279-23-4-8.537-4.152-17.204-4.485-26-1a2416.544 2416.544 0 0 1-16 8 30.485 30.485 0 0 1-11 0 114.717 114.717 0 0 1-16-6c-5.338-.879-10.504-.379-15.5 1.5-5.098-5.647-3.598-8.48 4.5-8.5 8.261-1.034 15.928.633 23 5 6.01 1.928 12.01 1.928 18 0a149.21 149.21 0 0 1 19-9.5z"/><path style="opacity:1" fill="#00612a" d="M82.5 159.5c8.677.514 16.677 3.014 24 7.5 9.457 1.516 18.457.183 27-4a240.381 240.381 0 0 0 13.5-2.5c1.812-.007 3.312.66 4.5 2-1.525 3.865-3.858 7.198-7 10a135.845 135.845 0 0 0-22 6.5c-5 .667-10 .667-15 0-7.087-4.195-14.753-6.695-23-7.5-8.777 1.223-16.777 4.389-24 9.5-5.985 1.942-11.985 1.942-18 0-6.153-3.605-12.82-5.605-20-6a109.387 109.387 0 0 0-6.5-7.5c-.688-.832-.521-1.498.5-2a18.116 18.116 0 0 1 8-2 166.442 166.442 0 0 1 22 6.5c9.485 1.727 17.818-.607 25-7 3.661-1.593 7.328-2.759 11-3.5z"/><path style="opacity:1" fill="#fefffe" d="M82.5 173.5c8.646.605 16.646 3.105 24 7.5a64.218 64.218 0 0 0 16 0c6.208-2.468 12.542-4.134 19-5-8.82 10.716-20.153 14.716-34 12a7454.95 7454.95 0 0 1-14-6 64.218 64.218 0 0 0-16 0 87.802 87.802 0 0 0-19 9c-13.52 1.94-24.52-2.394-33-13a419.468 419.468 0 0 0 27 6.5 27.862 27.862 0 0 0 9-1.5c6.61-4.31 13.61-7.477 21-9.5z"/><path style="opacity:1" fill="#00612a" d="M77.5 183.5a112.97 112.97 0 0 1 15 .5l14 6a112.66 112.66 0 0 0 19 0c-17.33 11.267-36.33 15.267-57 12-7.054-1.351-13.721-3.684-20-7a50.38 50.38 0 0 0 11-2 228.772 228.772 0 0 0 18-9.5z"/></svg>
